themes/mercury/dist/images/svg/download.svg

<svg xmlns="http://www.w3.org/2000/svg" width="39" height="34" viewBox="0 0 39 34">
  <g fill="none" fill-rule="evenodd">
    <path fill="#231F20" fill-rule="nonzero" d="M31.8403186,10.2196768 C35.5978027,10.2196768 38.6476106,13.2303526 38.6476106,16.9486061 C38.6476106,20.6671269 35.597859,23.6778586 31.8403186,23.6778586 L24.0834159,23.6778586 C23.6968166,23.6778586 23.3834159,23.3644579 23.3834159,22.9778586 C23.3834159,22.5912593 23.6968166,22.2778586 24.0834159,22.2778586 L31.8403186,22.2778586 C34.828667,22.2778586 37.2476106,19.8898641 37.2476106,16.9486061 C37.2476106,14.0076272 34.8286221,11.6196768 31.8403186,11.6196768 L29.2159381,11.6196768 C28.8293387,11.6196768 28.5159381,11.3062761 28.5159381,10.9196768 C28.5159381,5.90812606 24.3889234,1.7 19.401115,1.7 C15.1609524,1.7 11.5712717,4.41213685 10.5661133,8.3194478 C10.4865307,8.62880598 10.2076164,8.84505051 9.88818584,8.84505051 L8.5129646,8.84505051 C4.74831592,8.84505051 1.7,11.8542534 1.7,15.5616162 C1.7,19.2689077 4.74824417,22.2778586 8.5129646,22.2778586 L15.0825929,22.2778586 C15.4691922,22.2778586 15.7825929,22.5912593 15.7825929,22.9778586 C15.7825929,23.3644579 15.4691922,23.6778586 15.0825929,23.6778586 L8.5129646,23.6778586 C3.97908224,23.6778586 0.3,20.0462014 0.3,15.5616162 C0.3,11.0769789 3.9791354,7.44505051 8.5129646,7.44505051 L9.3607277,7.44505051 C10.7024819,3.19682479 14.719781,0.3 19.401115,0.3 C24.9337848,0.3 29.5281592,4.75528312 29.89264,10.2196768 L31.8403186,10.2196768 Z"/>
    <path fill="#231F20" fill-rule="nonzero" d="M20.0833681,31.0928294 L23.2547182,27.9621709 C23.5298446,27.6905747 23.9730509,27.6934365 24.2446471,27.9685628 C24.5162433,28.2436892 24.5133816,28.6868955 24.2382552,28.9584917 L19.8752021,33.2655624 C19.6025774,33.5346891 19.1642611,33.5346809 18.8916465,33.2655439 L14.5289208,28.9584732 C14.2538046,28.6868667 14.2509595,28.2436603 14.522566,27.9685441 C14.7941726,27.693428 15.2373789,27.6905828 15.5124951,27.9621894 L18.6833681,31.0926118 L18.6833681,15.2392242 C18.6833681,14.8526249 18.9967688,14.5392242 19.3833681,14.5392242 C19.7699675,14.5392242 20.0833681,14.8526249 20.0833681,15.2392242 L20.0833681,31.0928294 Z"/>
  </g>
</svg>

<svg xmlns="http://www.w3.org/2000/svg" width="39" height="34"><g fill="#231F20" fill-rule="nonzero"><path d="M31.84 10.22c3.758 0 6.808 3.01 6.808 6.729 0 3.718-3.05 6.729-6.808 6.729h-7.757a.7.7 0 0 1 0-1.4h7.757c2.989 0 5.408-2.388 5.408-5.33 0-2.94-2.42-5.328-5.408-5.328h-2.624a.7.7 0 0 1-.7-.7c0-5.012-4.127-9.22-9.115-9.22-4.24 0-7.83 2.712-8.835 6.62a.7.7 0 0 1-.678.525H8.513c-3.765 0-6.813 3.01-6.813 6.717s3.048 6.716 6.813 6.716h6.57a.7.7 0 0 1 0 1.4h-6.57C3.979 23.678.3 20.046.3 15.562c0-4.485 3.68-8.117 8.213-8.117h.848C10.702 3.197 14.72.3 19.4.3c5.533 0 10.127 4.455 10.492 9.92h1.947Z"/><path d="m20.083 31.093 3.172-3.13a.7.7 0 0 1 .983.995l-4.363 4.308a.7.7 0 0 1-.983 0l-4.363-4.308a.7.7 0 0 1 .983-.996l3.171 3.13V15.24a.7.7 0 0 1 1.4 0v15.854Z"/></g></svg>
